public/svg/icon/bcd.svg

<svg xmlns="http://www.w3.org/2000/svg" xmlns:xlink="http://www.w3.org/1999/xlink" width="32" height="32" viewBox="0 0 32 32"><defs><linearGradient id="bcd-c" x1="50%" x2="50%" y1="0%" y2="100%"><stop offset="0%" stop-color="#FFF" stop-opacity=".5"/><stop offset="100%" stop-opacity=".5"/></linearGradient><circle id="bcd-b" cx="16" cy="15" r="15"/><filter id="bcd-a" width="111.7%" height="111.7%" x="-5.8%" y="-4.2%" filterUnits="objectBoundingBox"><feOffset dy=".5" in="SourceAlpha" result="shadowOffsetOuter1"/><feGaussianBlur in="shadowOffsetOuter1" result="shadowBlurOuter1" stdDeviation=".5"/><feComposite in="shadowBlurOuter1" in2="SourceAlpha" operator="out" result="shadowBlurOuter1"/><feColorMatrix in="shadowBlurOuter1" values="0 0 0 0 0 0 0 0 0 0 0 0 0 0 0 0 0 0 0.199473505 0"/></filter><path id="bcd-e" d="M22.5845827,8.69361986 L22.6617387,8.86507666 L19.6075006,10.2673824 L20.9817796,14.8174404 L25.5033156,12.5338484 L25.5621794,12.6527647 L25.5814786,12.6308541 L22.6520891,8.7250222 L22.5845827,8.69361986 Z M22.4199037,8.6170152 L19.6465297,7.32690916 L12.4755678,7.32690916 L9.5140155,8.68665971 L12.5942458,9.98304609 L19.4446727,9.98304609 L22.4199037,8.6170152 Z M9.26641738,8.93660389 L6.49331338,12.5380186 L11.0065923,14.8174404 L12.3862276,10.2496484 L9.26641738,8.93660389 Z M12.7063813,10.3099552 L11.2806622,15.0303246 L15.994186,23.3622671 L20.7077097,15.0303246 L19.2819906,10.3099552 L12.7063813,10.3099552 Z M25.2181181,13.0433823 L20.9990697,15.1742037 L16.7939454,22.6074648 L25.2181181,13.0433823 Z M15.1714832,22.5669087 L10.9893023,15.1742037 L6.79327305,13.0550082 L15.1714832,22.5669087 Z M6.43079025,12.6434763 L6.46441375,12.5755504 L6.42082347,12.6321609 L6.43079025,12.6434763 Z M9.22220701,8.46154281 L12.4054641,7 L19.7174718,7 L22.8611061,8.46234211 L26,12.6475119 L16.0005755,24 L6,12.6462051 L9.22220701,8.46154281 Z M18.4229511,13.8340763 C18.4816256,14.441492 18.2307552,14.8060682 17.8294956,15.0129839 C18.4899823,15.1736019 18.9038534,15.5711597 18.8222079,16.4621384 C18.7210834,17.5686395 17.9067152,17.8654884 16.7431769,17.9330959 L16.7429611,19.0955655 L16.0508755,19.0956389 L16.0511744,17.9487191 C15.8718323,17.9488861 15.6881307,17.9473591 15.4983072,17.9433853 L15.4983297,19.0956138 L14.8069864,19.0954998 L14.8066933,17.9309629 C14.6447945,17.9299196 14.4798814,17.9270423 14.3122762,17.9268409 L13.4116232,17.9268747 L13.5491344,17.0898625 C13.5491344,17.0898625 14.0610843,17.0979418 14.0522288,17.0899968 C14.2480857,17.0896525 14.2999454,16.9472016 14.3122481,16.8578574 L14.3124217,15.0202675 C14.3377969,15.0200488 14.3624761,15.0202056 14.3855317,15.0201734 C14.3569582,15.0162089 14.3317228,15.0153941 14.3123784,15.0152878 L14.3123164,13.703569 C14.2857776,13.5613497 14.1945396,13.3965396 13.9142076,13.396454 C13.9227029,13.3869229 13.4116232,13.3967897 13.4116232,13.3967897 L13.4114413,12.6482427 L14.3659986,12.6485723 L14.3660892,12.6521427 C14.5095721,12.6520467 14.6567215,12.6492283 14.8065616,12.6461298 L14.8068167,11.4950289 L15.4985312,11.4950493 L15.4984293,12.6235538 C15.6832012,12.61982 15.8691791,12.6161809 16.0511189,12.6161565 L16.051077,11.4950744 L16.7431625,11.495001 L16.7431855,12.6464308 C17.6365522,12.7256912 18.3441435,13.0039722 18.4229511,13.8340763 Z M17.4546841,16.3241337 C17.4547408,15.4164255 15.9839215,15.5530348 15.5147378,15.5529222 L15.5145626,17.0958663 C15.9836076,17.0954151 17.4550683,17.1944007 17.4546841,16.3241337 Z M17.1328016,14.1472505 C17.1327144,13.3214249 15.9054469,13.4472443 15.5147542,13.4472759 L15.5147151,14.8466554 C15.9054078,14.8466238 17.1325854,14.939017 17.1328016,14.1472505 Z"/><filter id="bcd-d" width="117.5%" height="120.6%" x="-8.8%" y="-7.4%" filterUnits="objectBoundingBox"><feOffset dy=".5" in="SourceAlpha" result="shadowOffsetOuter1"/><feGaussianBlur in="shadowOffsetOuter1" result="shadowBlurOuter1" stdDeviation=".5"/><feColorMatrix in="shadowBlurOuter1" values="0 0 0 0 0 0 0 0 0 0 0 0 0 0 0 0 0 0 0.204257246 0"/></filter></defs><g fill="none" fill-rule="evenodd"><g fill-rule="nonzero"><use fill="#000" filter="url(#bcd-a)" xlink:href="#bcd-b"/><use fill="#FCC339" fill-rule="evenodd" xlink:href="#bcd-b"/><use fill="url(#bcd-c)" fill-rule="evenodd" style="mix-blend-mode:soft-light" xlink:href="#bcd-b"/><circle cx="16" cy="15" r="14.5" stroke="#000" stroke-opacity=".097"/></g><g fill-rule="nonzero"><use fill="#000" filter="url(#bcd-d)" xlink:href="#bcd-e"/><use fill="#FFF" fill-rule="evenodd" xlink:href="#bcd-e"/></g></g></svg>

<svg xmlns="http://www.w3.org/2000/svg" xmlns:xlink="http://www.w3.org/1999/xlink" width="32" height="32" viewBox="0 0 32 32"><defs><filter id="a" width="111.7%" height="111.7%" x="-5.8%" y="-4.2%" filterUnits="objectBoundingBox"><feOffset dy=".5" in="SourceAlpha" result="shadowOffsetOuter1"/><feGaussianBlur in="shadowOffsetOuter1" result="shadowBlurOuter1" stdDeviation=".5"/><feComposite in="shadowBlurOuter1" in2="SourceAlpha" operator="out" result="shadowBlurOuter1"/><feColorMatrix in="shadowBlurOuter1" values="0 0 0 0 0 0 0 0 0 0 0 0 0 0 0 0 0 0 0.199473505 0"/></filter><filter id="d" width="117.5%" height="120.6%" x="-8.8%" y="-7.4%" filterUnits="objectBoundingBox"><feOffset dy=".5" in="SourceAlpha" result="shadowOffsetOuter1"/><feGaussianBlur in="shadowOffsetOuter1" result="shadowBlurOuter1" stdDeviation=".5"/><feColorMatrix in="shadowBlurOuter1" values="0 0 0 0 0 0 0 0 0 0 0 0 0 0 0 0 0 0 0.204257246 0"/></filter><linearGradient id="c" x1="50%" x2="50%" y1="0%" y2="100%"><stop offset="0%" stop-color="#FFF" stop-opacity=".5"/><stop offset="100%" stop-opacity=".5"/></linearGradient><circle id="b" cx="16" cy="15" r="15"/><path id="e" d="M22.585 8.694l.077.171-3.054 1.402 1.374 4.55 4.521-2.283.06.119.018-.022-2.929-3.906-.067-.031zm-.165-.077l-2.773-1.29h-7.171l-2.962 1.36 3.08 1.296h6.85l2.976-1.366zm-13.154.32l-2.773 3.601 4.514 2.28 1.38-4.568-3.12-1.313zm3.44 1.373l-1.425 4.72 4.713 8.332 4.714-8.332-1.426-4.72h-6.576zm12.512 2.733L21 15.174l-4.205 7.433 8.424-9.564zm-10.047 9.524l-4.182-7.393-4.196-2.119 8.378 9.512zm-8.74-9.924l.033-.067-.043.056.01.011zm2.791-4.181L12.405 7h7.312l3.144 1.462L26 12.648 16 24 6 12.646l3.222-4.184zm9.201 5.372c.059.607-.192.972-.594 1.179.661.16 1.075.558.993 1.45-.1 1.106-.915 1.402-2.079 1.47v1.163h-.692v-1.147c-.18 0-.363-.002-.553-.006v1.153h-.691V17.93c-.162-.001-.327-.004-.495-.004h-.9l.137-.837s.512.008.503 0c.196 0 .248-.143.26-.232V15.02h.074a.55.55 0 00-.074-.005v-1.311c-.026-.143-.117-.307-.398-.308.009-.01-.502 0-.502 0v-.748h.954v.004c.144 0 .29-.003.44-.006v-1.151h.693v1.129c.184-.004.37-.008.552-.008v-1.12l.692-.001v1.151c.894.08 1.601.358 1.68 1.188zm-.968 2.49c0-.908-1.471-.771-1.94-.771v1.543c.469 0 1.94.098 1.94-.772zm-.322-2.177c0-.826-1.228-.7-1.618-.7v1.4c.39 0 1.618.092 1.618-.7z"/></defs><g fill="none"><use fill="#000" filter="url(#a)" xlink:href="#b"/><use fill="#FCC339" fill-rule="evenodd" xlink:href="#b"/><use fill="url(#c)" fill-rule="evenodd" style="mix-blend-mode:soft-light" xlink:href="#b"/><circle cx="16" cy="15" r="14.5" stroke="#000" stroke-opacity=".097"/><use fill="#000" filter="url(#d)" xlink:href="#e"/><use fill="#FFF" fill-rule="evenodd" xlink:href="#e"/></g></svg>
